X: 32309
T: Pigeon On The Gate, The
R: reel
M: 4/4
K: Adorian
|:eAAG AAeA|A2fg edBA|G3B dGBA|GABg bgag|
eAAG AAeA|A2fg edBA|G2 (3ABd gbag|egdB A2(3Bcd:|
|:eaag a2ag|eaag bgag|edd2 ^cdef|g2ba gedg|
eaag a2 ag|eaag bgag|ed^cd gbag|egdB A2(3Bcd:|

